!!!COM: Palestrina, Giovanni Perluigi da
!!!OPR: Ad coenam Agni
!!!OTL: Benedictus
**kern	**kern	**kern	**kern
*Itenor	*Itenor	*Icalto	*Icant
!Tenor 2	!Tenor 1	!Altus	!Cantus
*clefGv2	*clefGv2	*clefG2	*clefG2
*k[]	*k[]	*k[]	*k[]
*G:mix	*G:mix	*G:mix	*G:mix
*M4/2	*M4/2	*M4/2	*M4/2
=1	=1	=1	=1
0r	0r	0d	0r
=2	=2	=2	=2
0r	0r	1e	0g
.	.	[1g	.
=3	=3	=3	=3
0r	0d	2g]	0a
.	.	4f	.
.	.	4e	.
.	.	1f#	.
=4	=4	=4	=4
0r	1e	2.g	0g
.	.	4f	.
.	[1g	4e	.
.	.	4d	.
.	.	2e	.
=5	=5	=5	=5
0r	2g]	0d	0a
.	4f	.	.
.	4e	.	.
.	1f#	.	.
=6	=6	=6	=6
0d	[0g	0G	0b
=7	=7	=7	=7
1e	1g]	2.c	0cc
.	.	4d	.
[1g	1c	2e	.
.	.	2c	.
=8	=8	=8	=8
2g]	0r	0d	0a
4f	.	.	.
4e	.	.	.
1f#	.	.	.
=9	=9	=9	=9
1g	0d	1G	0b
1G	.	2r	.
.	.	[2g	.
=10	=10	=10	=10
2.c	1e	4g]	0r
.	.	4f	.
.	.	4e	.
4d	.	4d	.
2e	[1g	2c	.
2d	.	2B	.
=11	=11	=11	=11
1c	2g]	1A	0a
.	4f	.	.
.	4e	.	.
1r	1f#	1d	.
=12	=12	=12	=12
0d	1g	1G	0b
.	1G	1r	.
=13	=13	=13	=13
1e	2.c	0r	0cc
.	4d	.	.
[1g	2e	.	.
.	2c	.	.
=14	=14	=14	=14
2g]	0d	1r	0a
4f	.	.	.
4e	.	.	.
1f#	.	1d	.
=15	=15	=15	=15
2.g	0r	1e	0g
4f	.	.	.
1e	.	[1g	.
=16	=16	=16	=16
0d	1r	2g]	0a
.	.	4f	.
.	.	4e	.
.	1d	1f#	.
=17	=17	=17	=17
2.c	2e	1g	0cc
.	1g	.	.
4B	.	.	.
1A	.	1c	.
.	2f#	.	.
=18	=18	=18	=18
1G	1g	2r	0b
.	.	1d	.
1r	1G	.	.
.	.	[2e	.
=19	=19	=19	=19
0r	1A	4e]	0cc
.	.	4c	.
.	.	1f	.
.	[1c	.	.
.	.	2e	.
=20	=20	=20	=20
1r	2c]	1d	0dd
.	4B	.	.
.	4A	.	.
1d	1B	1G	.
=21	=21	=21	=21
2e	2.c	0r	0cc
1g	.	.	.
.	4B	.	.
.	1A	.	.
2f#	.	.	.
=22	=22	=22	=22
1g	0G	1d	0b
2r	.	2e	.
2d	.	[2g	.
=23	=23	=23	=23
2e	2.c	4g]	0r
.	.	4f	.
2.g	.	4e	.
.	4d	4d	.
.	4e	2.c	.
4f	4f	.	.
4e	[2g	.	.
4d	.	4B	.
=24	=24	=24	=24
1c	2g]	1A	0a
.	4f	.	.
.	4e	.	.
1d	1f#	2r	.
.	.	2d	.
=25	=25	=25	=25
1G	2r	2d	0b
.	2g	2d	.
1r	2g	2.e	.
.	2g	.	.
.	.	4d	.
=26	=26	=26	=26
0r	2.a	4c	0cc
.	.	4B	.
.	.	2A	.
.	4g	.	.
.	2f	2a	.
.	2e	2g	.
=27	=27	=27	=27
1d	2a	2f	0dd
.	1g	2b-	.
2d	.	2a	.
2d	2f#	2a	.
=28	=28	=28	=28
1e	2g	0g	0b
.	2G	.	.
2d	2G	.	.
[2e	2G	.	.
=29	=29	=29	=29
4e]	1A	1r	0cc
4c	.	.	.
1f	.	.	.
.	[1c	1g	.
4e	.	.	.
4d	.	.	.
=30	=30	=30	=30
1e	1c]	2g	0cc
.	.	2g	.
1f	1F	1a	.
=31	=31	=31	=31
1d	0G	2.g	0b
.	.	4f	.
2.g	.	2e	.
.	.	2d	.
4f	.	.	.
=32	=32	=32	=32
2e	[0A	2c	0r
2d	.	2f	.
2c	.	2e	.
2f	.	[2d	.
=33	=33	=33	=33
1e	1A]	2d]	0a
.	.	2c#	.
1d	2r	1d	.
.	2d	.	.
=34	=34	=34	=34
2r	2d	1r	0b
2G	2d	.	.
2G	2.e	2r	.
2G	.	2e	.
.	4d	.	.
=35	=35	=35	=35
1A	4c	2e	0cc
.	4B	.	.
.	2A	2e	.
1F	2a	2.f	.
.	2a	.	.
.	.	4e	.
=36	=36	=36	=36
0G	0g	4d	0b
.	.	4c	.
.	.	4B	.
.	.	4A	.
.	.	2G	.
.	.	[2g	.
=37	=37	=37	=37
1.d	1r	2g]	0a
.	.	4f	.
.	.	4e	.
.	2r	2f#	.
2d	2d	2f#	.
=38	=38	=38	=38
1G	2d	0g	0b
.	2d	.	.
1r	2e	.	.
.	[2g	.	.
=39	=39	=39	=39
2r	2g]	1d	0a
2d	4f	.	.
.	4e	.	.
2d	2f#	1r	.
2d	2f#	.	.
=40	=40	=40	=40
2e	1g	1r	[0g
1c	.	.	.
.	[1G	1d	.
4B	.	.	.
4A	.	.	.
=41	=41	=41	=41
1B	1G]	2d	1g_
.	.	2d	.
1c	2r	2e	1g_
.	2c	[2c	.
=42	=42	=42	=42
1G	2d	2c]	0g]
.	2d	2B	.
2r	1e	2.c	.
[2g	.	.	.
.	.	4d	.
=43	=43	=43	=43
4g]	1c	1e	[0g
4f	.	.	.
1e	.	.	.
.	1c	1e	.
4d	.	.	.
4c	.	.	.
=44	=44	=44	=44
[0B	[0G	[0d	1g_
.	.	.	1g_
=45	=45	=45	=45
0B]	0G]	0d]	0g]
*-	*-	*-	*-
!! B.Hosanna
**kern	**kern	**kern	**kern	**kern
*Ibass	*Itenor	*Icalto	*Icalto	*Icant
!Bassus	!Tenor	!Altus 2	!Altus 1	!Cantus
*clefF4	*clefGv2	*clefG2	*clefG2	*clefG2
*k[]	*k[]	*k[]	*k[]	*k[]
*G:mix	*G:mix	*G:mix	*G:mix	*G:mix
*M3/2	*M3/2	*M3/2	*M3/2	*M3/2
=46	=46	=46	=46	=46
1r	1r	1r	1G	[1.g
2r	2r	2r	[2c	.
=47	=47	=47	=47	=47
1r	1G	1r	2c]	1.g]
.	.	.	2B	.
2r	[2c	2r	[2e	.
=48	=48	=48	=48	=48
1r	2c]	1r	2e]	1.g
.	1B	.	1d	.
2r	.	2r	.	.
=49	=49	=49	=49	=49
1r	1A	1r	2f	[1.a
.	.	.	2.e	.
2r	[2f	2r	.	.
.	.	.	4d	.
=50	=50	=50	=50	=50
1r	2f]	1r	1d	1.a]
.	1e	.	.	.
2r	.	2r	2c	.
=51	=51	=51	=51	=51
1r	1d	1r	1f	1.a
2r	[2c	2r	[2e	.
=52	=52	=52	=52	=52
1r	2c]	1r	2e]	1.g
.	1B	.	1d	.
2r	.	2r	.	.
=53	=53	=53	=53	=53
1r	1.A	1r	2e	1.a
.	.	.	1f#	.
2r	.	2r	.	.
=54	=54	=54	=54	=54
1r	1.G	1r	2.g	1.b
.	.	.	4f	.
2r	.	2r	2d	.
=55	=55	=55	=55	=55
1C	1g	[1.c	1e	[1.cc
[2F	2f	.	2a	.
=56	=56	=56	=56	=56
2F]	2a	1.c]	2f	1.cc]
1E	4g	.	1g	.
.	4f	.	.	.
.	4e	.	.	.
.	4d	.	.	.
=57	=57	=57	=57	=57
1F	2c	1.c	2a	1.a
.	2A	.	1f	.
2A	2c	.	.	.
=58	=58	=58	=58	=58
1G	1B	[1.d	2g	1b
.	.	.	4d	.
.	.	.	4e	.
2D	[2A	.	4f	[2dd
.	.	.	4g	.
=59	=59	=59	=59	=59
2F	2A]	1.d]	2a	4dd]
.	.	.	.	4cc
1G	2B	.	2g	4b
.	.	.	.	4a
.	2G	.	2d	2b
=60	=60	=60	=60	=60
2F	2A	1.d	1f	1a
1B-	2d	.	.	.
.	2G	.	4e	[2g
.	.	.	4d	.
=61	=61	=61	=61	=61
1.A	1r	1.c	2e	2g]
.	.	.	2A	1f#
.	2r	.	[2c	.
=62	=62	=62	=62	=62
1.G	2r	1.d	2c]	1.g
.	2r	.	1B	.
.	[2G	.	.	.
=63	=63	=63	=63	=63
1.C	2G]	1.e	[1.c	1r
.	2.c	.	.	.
.	.	.	.	2r
.	4B	.	.	.
=64	=64	=64	=64	=64
[1.F	2A	[1.f	1.c]	1a
.	2F	.	.	.
.	2G	.	.	2b
=65	=65	=65	=65	=65
1.F]	1A	1.f]	1.c	1cc
.	2A	.	.	2cc
=66	=66	=66	=66	=66
1.BB-	1B-	1.d	1r	1dd
.	2B-	.	2r	2dd
=67	=67	=67	=67	=67
1C	[1.G	1e	1c	1cc
2G	.	[2g	2d	2b
=68	=68	=68	=68	=68
1.C	1.G]	4g]	1e	1cc
.	.	4f	.	.
.	.	4e	.	.
.	.	4d	.	.
.	.	2e	2e	2g
=69	=69	=69	=69	=69
1r	1.F	1d	1f	1.a
2r	.	[2c	2f	.
=70	=70	=70	=70	=70
1r	1.G	2c]	2e	[1.g
.	.	1B	1d	.
2r	.	.	.	.
=71	=71	=71	=71	=71
1C	1r	1.c	2.e	1.g]
.	.	.	4d	.
2C	2r	.	2c	.
=72	=72	=72	=72	=72
1E	1G	1r	2B	1.g
.	.	.	1c	.
2F	2A	2r	.	.
=73	=73	=73	=73	=73
1G	1B	1d	2B	1r
.	.	.	1G	.
2E	2c	2e	.	2r
=74	=74	=74	=74	=74
1.D	1d	1f	1A	1a
.	2d	2f	2d	2b
=75	=75	=75	=75	=75
1.C	1.e	1g	2G	2.cc
.	.	.	1c	.
.	.	.	.	4dd
.	.	2g	.	2ee
=76	=76	=76	=76	=76
1D	1d	1f	2A	2ff
.	.	.	2a	2dd
2A	2c#	2e	2a	2ee
=77	=77	=77	=77	=77
4D	2d	1f	1a	1dd
4E	.	.	.	.
4F	1A	.	.	.
4G	.	.	.	.
2A	.	2c	2f	[2cc
=78	=78	=78	=78	=78
1.G	2r	1.d	1.g	2cc]
.	1d	.	.	1b
=79	=79	=79	=79	=79
1C	1e	[1.c	1g	1cc
2F	2f	.	2a	2r
=80	=80	=80	=80	=80
2E	2g	1.c]	2g	1cc
1F	1a	.	1f	.
.	.	.	.	2dd
=81	=81	=81	=81	=81
1.C	1g	1.c	2.e	1ee
.	.	.	4d	.
.	2r	.	2c	2ee
=82	=82	=82	=82	=82
1r	1G	1r	2B	1dd
.	.	.	1e	.
2r	2A	2r	.	2cc#
=83	=83	=83	=83	=83
1G	1B	1d	4d	2dd
.	.	.	4c	.
.	.	.	4B	1gg
.	.	.	4A	.
2E	2c#	2e	2G	.
=84	=84	=84	=84	=84
1D	2.d	2.f	2A	2.ff
.	.	.	2r	.
.	4e	4g	.	4ee
2D	2f	2a	2r	[2dd
=85	=85	=85	=85	=85
1G	2g	2b	2d	4dd]
.	.	.	.	4cc
.	2G	2g	2e	2b
2D	2d	2a	2f#	2a
=86	=86	=86	=86	=86
2G	2B	1g	2g	2b
2C	2c	.	2e	2.ee
[2D	2A	[2f	[2a	.
.	.	.	.	4dd
=87	=87	=87	=87	=87
2D]	1r	2f]	2a]	1dd
1A	.	1e	1a	.
.	2r	.	.	2cc#
=88	=88	=88	=88	=88
1D	2A	1f	2r	1dd
.	2B	.	2d	.
2A	2c	2r	2e	2r
=89	=89	=89	=89	=89
1D	2.d	1f	2f	1a
.	.	.	1d	.
.	4c	.	.	.
2r	2B	2g	.	2b
=90	=90	=90	=90	=90
1r	1A	1a	2e	1cc
.	.	.	1f	.
2r	2F	2a	.	2cc
=91	=91	=91	=91	=91
1r	2G	1g	[1.d	2b
.	2.d	.	.	1a
2r	.	2f#	.	.
.	4c	.	.	.
=92	=92	=92	=92	=92
1r	2B	2g	2d]	1g
.	1A	1cc	1c	.
2r	.	.	.	2f#
=93	=93	=93	=93	=93
1.G	2G	2.b	1.d	1g
.	2.B	.	.	.
.	.	4a	.	.
.	.	[2g	.	[2b
.	4c	.	.	.
=94	=94	=94	=94	=94
1.G	2d	4g]	1g	2b]
.	.	4f	.	.
.	2e	2e	.	2cc
.	2B	2d	[2g	2dd
=95	=95	=95	=95	=95
1C	1c	2e	4g]	1cc
.	.	.	4f	.
.	.	2.a	4e	.
.	.	.	4d	.
2C	[2c	.	2c	[2ee
.	.	4g	.	.
=96	=96	=96	=96	=96
2C	2c]	1g	2G	2ee]
1D	1A	.	2d	1dd
.	.	2f#	2r	.
=97	=97	=97	=97	=97
1.G	1G	[1.g	1B	1.dd
.	2r	.	2c	.
=98	=98	=98	=98	=98
1r	1G	1.g_	2d	1b
.	.	.	1e	.
2r	2A	.	.	2cc
=99	=99	=99	=99	=99
1.G	1B	1.g_	2d	2dd
.	.	.	2G	1ee
.	2c	.	2A	.
=100	=100	=100	=100	=100
1.G	2d	1.g]	2.B	2dd
.	2e	.	.	2.gg
.	.	.	4c	.
.	2d	.	2d	.
.	.	.	.	4ff
=101	=101	=101	=101	=101
[1.C	1c	[1.g	[1.e	1ee
.	[2G	.	.	2dd
=102	=102	=102	=102	=102
1.C]	2G]	1.g_	1.e]	1.cc
.	1c	.	.	.
=103	=103	=103	=103	=103
[1.G	[1.B	1.g_	[1.d	[1.dd
=104	=104	=104	=104	=104
1.G]	1.B]	1.g]	1.d]	1.dd]
==	==	==	==	==
*-	*-	*-	*-	*-
!!!CDT: 1525/^1526/-1594/2/2
!!!OCY: Italia
!!!AGN: Mass (Canonic)
!!!AST: renaissance, vocal
!!!ASW: Hymn
!!!PWK: Masses, Book I
!!!RNB: Cadence finals: C
!!!YOR: Le Opere Complete, v. 1, p. 125
!!!YOO: Rome, Italy: Fratelli Scalera
!!!END: 1992//
!!!EED: John Miller
!!!YEC: Copyright 2000, John Miller
!!!YEN: United States of America
!!!YEM: Rights to all derivative electronic formats reserved.
!!!YEM: Refer to licensing agreement for further details.
!!!YEM: This file must be accompanied by the licensing agreement.
!!!YEM: A copy of the licensing agreement may be found at http://www.music-cog.ohio-state.edu/HumdrumDatabases/Palestrina/license.txt
!!!EMD: converted to Humdrum by Bret Aarden
